X:1
T:Ach lieben Christen, seid getrost
T:Ach lieben Christen, seid getrost
T:BWV 256
T:Johann Sebastian Bach
C:Johann Sebastian Bach
%%score 1 2 3 4
L:1/8
M:4/4
K:C
V:1 treble 
V:2 treble 
V:3 bass 
V:4 bass 
V:1
 c2 | c2 AB cd e2 | de/f/ d2 c2 c2 | B2 AB c2 dc | B4 A2 :| d2 | e2 e2 Bc d2 | c2 c2 B2 c2 | %8
 d2 AB c2 B2 | A/B/c A2 G2 c2 | B2 AB c2 dc | B4 A4 |] %12
V:2
 EF | G2 F2 G2 G2 | A2 GF E2 ^F2 | G2 =F2 E2 A2 | A2 ^G2 E2 :| =G2 | G2 G2 DE F2 | E2 A2 ^G2 A2 | %8
 AG ^F2 E2 DG | GE ^F2 D2 E2 | DE^F=F E2 A2- | A2 ^G2 E4 |] %12
V:3
 C2 | C2 C2 C2 C2 | C2 B,2 G,2 A,2 | D2 D2 CB, A,2 | F2 ED ^C2 :| B,2 | =C2 G,A, B,2 A,B, | %7
 CD E2 E2 E2 | A,2 D2 G,A,B,D | E2 DC B,2 G,A, | B,C D2 CB,A,C | FDB,E ^C4 |] %12
V:4
 A,2 | E,2 F,2 E,D, C,2 | F,2 G,2 C,2 A,2 | G,2 D2 A,G,F,E, | D,2 E,2 A,,2 :| G,,2 | %6
 C,D,E,F, G,2 F,2 | A,,B,,C,D, E,2 A,G, | ^F,E, D,2 E,F, G,2 | C,2 D,2 G,,2 E,^F, | %10
 G,2 ^F,^G, A,=G,=F,E, | D,B,, E,2 A,,4 |] %12

